X:1
T:Title
%%score { ( 1 3 ) | ( 2 4 ) }
L:1/8
M:6/8
K:Bb
V:1 treble nm="Grand Piano"
V:3 treble 
V:2 bass 
V:4 bass 
V:1
 z3 z2[Q:1/4=95] [DF] | [DF][FB]c d2 [DF] | [DF][FB]c d2 d | c>cc c2 d |[M:5/8] B-B- B3 | %5
[M:1/8] [DF] |[M:3/4] [DF][FB] c d2 [DF] | [DF][FB] c d2 [Fd] | [Fc]>[Fc] [Fc][D=EB] [CEA][B,EG] | %9
[M:5/8] F-F- F3 |[M:1/8] F |[M:3/4] [DB]>[DB] [DB] [DB]2 [DF] | [FA]G- G3 G | F>B B[=EB] [EA][EB] | %14
[M:5/8] c-c- c3 |[M:1/8] F |[M:3/4] [Fd][Fd]- [Fd]/[Fd]/ [Fd]2 [_AB] | %17
 [GB][GB]- [GB]/[GB]/ [GB]2 G |[M:13/16] FBcdd3/2c |[M:5/8] B-B- B3 |] %20
V:2
 z3 z2 [B,,B,] | [B,,B,][D,B,][K:treble][F,A,F] [B,F]2[K:bass] [B,,B,] | %2
 [B,,B,][D,B,][K:treble][F,A,F] [B,F]2 [B,F] | [F,A,E]>[F,A,E][F,A,E] [F,A,E]2 [F,A,F] | %4
[M:5/8] z2 G, F,2 |[M:1/8] [B,,B,] | %6
[M:3/4] [B,,B,][D,B,][K:treble] [F,A,F] [B,F]2[K:bass] [B,,B,] | %7
 [B,,B,][D,B,][K:treble] [F,A,F] [B,F]2[K:bass] [B,,B,] | [C,A,]>[C,A,] [C,A,]C, C,C, | %9
[M:5/8] z A,B, C2 |[M:1/8] [F,A,E] |[M:3/4] [B,,B,]>[B,,F,] [B,,F,] [B,,F,]2 [B,,B,] | %12
 [E,B,][E,B,E]- [E,B,E]3 [=E,B,_D] | [F,B,D]>[F,B,D] [F,B,D][C,C] [C,C][C,B,] | %14
[M:5/8] [F,A,F]2 [G,B,] [A,C]2 |[M:1/8] [F,A,E] | %16
[M:3/4] [B,,B,][B,,B,]- [B,,B,]/[B,,B,]/ [B,,B,]2 [D,B,] | %17
 [E,B,][E,B,]- [E,B,]/[E,B,]/ [E,B,]2 [=E,B,_D] | %18
[M:13/16] [F,B,D][F,B,D][F,A,E][F,B,F][F,B,F]3/2[F,A,E] |[M:5/8] z2 G, F,2 |] %20
V:3
 x6 | x6 | x6 | x6 |[M:5/8] [B,D]2 E D2 |[M:1/8] x |[M:3/4] x6 | x6 | x6 |[M:5/8] A,CD E2 | %10
[M:1/8] x |[M:3/4] x6 | x6 | x6 |[M:5/8] z2 =E _E2 |[M:1/8] x |[M:3/4] x6 | x6 |[M:13/16] x13/2 | %19
[M:5/8] [B,D]2 E D2 |] %20
V:4
 x6 | x2[K:treble] x3[K:bass] x | x2[K:treble] x4 | x6 |[M:5/8] B,,-B,,- B,,3 |[M:1/8] x | %6
[M:3/4] x2[K:treble] x3[K:bass] x | x2[K:treble] x3[K:bass] x | x6 |[M:5/8] F,-F,- F,3 |[M:1/8] x | %11
[M:3/4] x6 | x6 | x6 |[M:5/8] x5 |[M:1/8] x |[M:3/4] x6 | x6 |[M:13/16] x13/2 | %19
[M:5/8] B,,-B,,- B,,3 |] %20

